22x22/devices/gnome-dev-floppy.svg

<svg xmlns="http://www.w3.org/2000/svg" width="22" height="22" version="1"><rect style="opacity:.2" width="20" height="20" x="-21.5" y="-21" rx="1" ry="1" transform="matrix(0 -1 -1 0 0 0)"/><rect style="fill:#4f4f4f" width="20" height="20" x="-21" y="-21" rx="1" ry="1" transform="matrix(0 -1 -1 0 0 0)"/><rect style="opacity:.2" width="16" height="9" x="3" y="10.5" rx="1" ry="1"/><rect style="fill:#f4f4f7" width="16" height="9" x="3" y="10" rx="1" ry="1"/><path style="fill:#ffae3f" d="M19 16.5V18c0 .554-.446 1-1 1H4c-.554 0-1-.446-1-1v-1.5z"/><path style="opacity:.2" d="M7 1.5v6c0 .554.446 1 1 1h10c.554 0 1-.446 1-1v-6zm7.5 1H17c.277 0 .5.223.5.5v3.5c0 .277-.223.5-.5.5h-2.5a.499.499 0 0 1-.5-.5V3c0-.277.223-.5.5-.5z"/><path style="fill:#b7b7b7" d="M7 1v6c0 .554.446 1 1 1h10c.554 0 1-.446 1-1V1zm7.5 1H17c.277 0 .5.223.5.5V6c0 .277-.223.5-.5.5h-2.5A.499.499 0 0 1 14 6V2.5c0-.277.223-.5.5-.5z"/><path style="opacity:.1;fill:#f4f4f7" d="M2 1c-.554 0-1 .446-1 1v.5c0-.554.446-1 1-1h18c.554 0 1 .446 1 1V2c0-.554-.446-1-1-1z"/></svg>

<svg xmlns="http://www.w3.org/2000/svg" width="22" height="22" version="1">
 <rect style="opacity:0.2" width="20" height="20" x="-21.5" y="-21" rx="1" ry="1" transform="matrix(0,-1,-1,0,0,0)"/>
 <rect style="fill:#4f4f4f" width="20" height="20" x="-21" y="-21" rx="1" ry="1" transform="matrix(0,-1,-1,0,0,0)"/>
 <rect style="opacity:0.2" width="16" height="9" x="3" y="10.5" rx="1" ry="1"/>
 <rect style="fill:#f4f4f7" width="16" height="9" x="3" y="10" rx="1" ry="1"/>
 <path style="fill:#ffae3f" d="M 19,16.5 V 18 C 19,18.554 18.554,19 18,19 H 4 C 3.446,19 3,18.554 3,18 V 16.5 Z"/>
 <path style="opacity:0.2" d="M 7,1.5 V 7.5 C 7,8.054 7.446,8.5 8,8.5 H 18 C 18.554,8.5 19,8.054 19,7.5 V 1.5 Z M 14.5,2.5 H 17 C 17.277,2.5 17.5,2.723 17.5,3 V 6.5 C 17.5,6.777 17.277,7 17,7 H 14.5 C 14.223,7 14,6.777 14,6.5 V 3 C 14,2.723 14.223,2.5 14.5,2.5 Z"/>
 <path style="fill:#b7b7b7" d="M 7,1 V 7 C 7,7.554 7.446,8 8,8 H 18 C 18.554,8 19,7.554 19,7 V 1 Z M 14.5,2 H 17 C 17.277,2 17.5,2.223 17.5,2.5 V 6 C 17.5,6.277 17.277,6.5 17,6.5 H 14.5 C 14.223,6.5 14,6.277 14,6 V 2.5 C 14,2.223 14.223,2 14.5,2 Z"/>
 <path style="opacity:0.1;fill:#f4f4f7" d="M 2,1 C 1.446,1 1,1.446 1,2 V 2.5 C 1,1.946 1.446,1.5 2,1.5 H 20 C 20.554,1.5 21,1.946 21,2.5 V 2 C 21,1.446 20.554,1 20,1 Z"/>
</svg>
